icons/save-line.svg

<svg viewBox="0 0 24 24" fill="currentColor" xmlns="http://www.w3.org/2000/svg"><path d="M7 19V13H17V19H19V7.82843L16.1716 5H5V19H7ZM4 3H17L21 7V20C21 20.5523 20.5523 21 20 21H4C3.44772 21 3 20.5523 3 20V4C3 3.44772 3.44772 3 4 3ZM9 15V19H15V15H9Z"/></svg>

<svg xmlns="http://www.w3.org/2000/svg" viewBox="0 0 24 24">
    <g>
        <path fill="none" d="M0 0h24v24H0z"/>
        <path d="M7 19v-6h10v6h2V7.828L16.172 5H5v14h2zM4 3h13l4 4v13a1 1 0 0 1-1 1H4a1 1 0 0 1-1-1V4a1 1 0 0 1 1-1zm5 12v4h6v-4H9z"/>
    </g>
</svg>
